X:159
T:Tommy Peoples
M:4/4
L:1/8
R:Reel
K:G
G2 BGcGBG|ADD/2D/2D FGAF|G2 BGcGBG|Addc AGGF|
G2 BGcGBG|ADD/2D/2D FGAF|G2 BGcGBG|Addc AG (3Bcd)|
g2 dg egdg|g2 bg fgaf|g2 dg egdB|cBAc BG (3Bcd)|
g2 dg egdg|g2 bg fgaf|g2 dg egdB|cBAc BGGF|
